X: 46
T: No_13_I_Have_Been_in_This_World_a_Long_Time.krn
N: Derived from No_13_I_Have_Been_in_This_World_a_Long_Time.krn
%%abc-version 2.0
%%abcx-abcm2ps-target-version 5.9.1 (29 Sep 2008)
%%abc-creator hum2abc beta
%%abcx-conversion-date 2019/03/15 08:37:56
%%humdrum-veritas 1426726207
%%humdrum-veritas-data 646741310
%%linebreak <none>
%%barnumbers 0
L: 1/8
M: 2/4
K: Db clef=bass
B, [I:setbarnb 1]| 
B,3/C/B,2 | 
A,F, F,E, | 
F,3/E,/D,2 | 
D,4 | 
D,2D,2 ||  
[M:3/4]B,,A,, A,, zD,2 | 
F,2E,D,!fermata!D,2 ||  
[M:2/4]E,4 | 
z2F,E, ||  
[M:3/4]F,3E, F,E, ||  
[M:2/4]F,4 | 
E, z F,E, ||  
[M:3/4]A,2F,E,E,2 | 
D,B,,-B,,4 | 
E,2D,B,,B,,2 | 
D,4D,2 | 
D,6 ||  
[M:2/4]D,B,,B,,2 ||  
[M:3/4]D,6 | 
E,2E,2E,2 ||  
[M:2/4]E,E,D,2 ||  
[M:3/4]E,E,E,2D, z ||  
[M:2/4]E,2E,D, ||  
[M:3/4]E,2E,4 | 
E,6 |]  



